X:56
T:Kitty Bo-Bo
Z:Jack Campin, http://www.campin.me.uk/
S:Northumbrian Minstrelsy
N:sword dance tune, not a song
M:3/4
L:1/8
K:G
gf`ed g/f/e/d/|B2 G2 B2|gf`ed g/f/e/d/|A2 F2 A2:|
GB`dB`d```c   |B2 G2 B2|GB`dB`c```A   |A2 F2 A2:|
B2 Gc`B```A   |B2 G2 B2|B2 Gc`B```G   |A2 F2 A2:|

